build/assets/images/svg/icons/delivery/day.svg

<svg width="52" height="52" viewBox="0 0 52 52" fill="none" xmlns="http://www.w3.org/2000/svg">
<rect width="52" height="52" rx="26" fill="#F4F7FB"/>
<path fill-rule="evenodd" clip-rule="evenodd" d="M21.9998 12.6663C21.9998 11.93 21.4029 11.333 20.6665 11.333C19.9301 11.333 19.3332 11.93 19.3332 12.6663V13.9997H17.9998C15.0543 13.9997 12.6665 16.3875 12.6665 19.333V33.9997C12.6665 36.9452 15.0543 39.333 17.9998 39.333H29.9998C30.7362 39.333 31.3332 38.7361 31.3332 37.9997C31.3332 37.2633 30.7362 36.6663 29.9998 36.6663H17.9998C16.5271 36.6663 15.3332 35.4724 15.3332 33.9997V22.6663H36.6665V31.333C36.6665 32.0694 37.2635 32.6663 37.9998 32.6663C38.7362 32.6663 39.3332 32.0694 39.3332 31.333V19.333C39.3332 16.3875 36.9454 13.9997 33.9998 13.9997H32.6665V12.6663C32.6665 11.93 32.0696 11.333 31.3332 11.333C30.5968 11.333 29.9998 11.93 29.9998 12.6663V13.9997H21.9998V12.6663ZM31.3332 17.9997C30.5968 17.9997 29.9998 17.4027 29.9998 16.6663H21.9998C21.9998 17.4027 21.4029 17.9997 20.6665 17.9997C19.9301 17.9997 19.3332 17.4027 19.3332 16.6663H17.9998C16.5271 16.6663 15.3332 17.8602 15.3332 19.333V19.9997H36.6665V19.333C36.6665 17.8602 35.4726 16.6663 33.9998 16.6663H32.6665C32.6665 17.4027 32.0696 17.9997 31.3332 17.9997Z" fill="#203686"/>
<path d="M40.2613 36.9425C40.782 36.4218 40.782 35.5775 40.2613 35.0568C39.7406 34.5361 38.8964 34.5361 38.3757 35.0568L35.7907 37.6418L35.4149 37.266C34.8942 36.7453 34.0499 36.7453 33.5292 37.266C33.0085 37.7867 33.0085 38.6309 33.5292 39.1516L34.8479 40.4702C35.3686 40.9909 36.2128 40.9909 36.7335 40.4702L40.2613 36.9425Z" fill="#203686"/>
</svg>

<svg width="52" height="52" fill="none" xmlns="http://www.w3.org/2000/svg"><rect width="52" height="52" rx="26" fill="#F4F7FB"/><path fill-rule="evenodd" clip-rule="evenodd" d="M22 12.666a1.333 1.333 0 00-2.667 0V14H18a5.333 5.333 0 00-5.334 5.333V34A5.333 5.333 0 0018 39.333h12a1.333 1.333 0 100-2.667H18A2.667 2.667 0 0115.333 34V22.666h21.334v8.667a1.333 1.333 0 002.666 0v-12A5.333 5.333 0 0034 14h-1.334v-1.334a1.333 1.333 0 00-2.666 0V14h-8v-1.334zM31.333 18A1.333 1.333 0 0130 16.666h-8a1.333 1.333 0 11-2.667 0H18a2.667 2.667 0 00-2.667 2.667V20h21.334v-.667A2.667 2.667 0 0034 16.666h-1.334c0 .737-.596 1.334-1.333 1.334z" fill="#203686"/><path d="M40.261 36.943a1.333 1.333 0 00-1.885-1.886l-2.585 2.585-.376-.376a1.333 1.333 0 00-1.886 1.886l1.319 1.318c.52.52 1.365.52 1.886 0l3.527-3.527z" fill="#203686"/></svg>
